assets/icons/qvision/flight.svg

<svg xmlns="http://www.w3.org/2000/svg" height="24" viewBox="0 0 24 24" width="24"><path d="M0 0h24v24H0z" fill="none"/><path d="M21 16v-2l-8-5V3.5c0-.83-.67-1.5-1.5-1.5S10 2.67 10 3.5V9l-8 5v2l8-2.5V19l-2 1.5V22l3.5-1 3.5 1v-1.5L13 19v-5.5l8 2.5z"/></svg>

<svg width="24" height="24" viewBox="0 0 24 24" fill="none" xmlns="http://www.w3.org/2000/svg">
<g clip-path="url(#clip0_147_5298)">
<path d="M21 16V14L13 9V3.5C13 2.67 12.33 2 11.5 2C10.67 2 10 2.67 10 3.5V9L2 14V16L10 13.5V19L8 20.5V22L11.5 21L15 22V20.5L13 19V13.5L21 16Z" fill="#323232"/>
</g>
<defs>
<clipPath id="clip0_147_5298">
<rect width="24" height="24" fill="white"/>
</clipPath>
</defs>
</svg>
